icons/chevron-left-12.svg

<svg width="12" height="12" viewBox="0 0 12 12">
  <path
    d="M3.5875 6.025C3.5875 6.225 3.6875 6.425 3.7875 6.525L7.0875 9.825C7.3875 10.125 7.8875 10.125 8.1875 9.825C8.4875 9.525 8.4875 9.025 8.1875 8.725L5.4875 6.025L8.1875 3.325C8.4875 3.025 8.4875 2.525 8.1875 2.225C7.8875 1.925 7.3875 1.925 7.0875 2.225L3.8875 5.425C3.6875 5.625 3.5875 5.825 3.5875 6.025Z" />
</svg>

<svg xmlns="http://www.w3.org/2000/svg" width="12" height="12" viewBox="0 0 12 12"><path d="M3.587 6.025c0 .2.1.4.2.5l3.3 3.3c.3.3.8.3 1.1 0 .3-.3.3-.8 0-1.1l-2.7-2.7 2.7-2.7c.3-.3.3-.8 0-1.1-.3-.3-.8-.3-1.1 0l-3.2 3.2c-.2.2-.3.4-.3.6Z"/></svg>
